X: 36
T: No_42_Look_at_the_Poppy_Flowers,_Growing_Fine.krn
N: Derived from No_42_Look_at_the_Poppy_Flowers,_Growing_Fine.krn
%%abc-version 2.0
%%abcx-abcm2ps-target-version 5.9.1 (29 Sep 2008)
%%abc-creator hum2abc beta
%%abcx-conversion-date 2019/03/15 08:35:01
%%humdrum-veritas 3165445356
%%humdrum-veritas-data 2506408199
%%linebreak <none>
%%barnumbers 0
L: 1/8
M: 2/4
K: G clef=bass
[K:clef=bass][M:2/4]A,2F,E, | 
A,2A, z | 
[M:3/4]F,3/E,/ D,D, E,3/E,/ | 
[M:2/4]A,3/G,/ G, z | 
[M:3/4](G,E,) D,D, E,E, | 
[M:2/4]A,3/A,/ A, z [I:setbarnb 7]| 
B,A,G,2 | 
A,A,A,2 | 
G,E,D,2 | 
[M:3/4]E,3/E,/ A,3/G,/ G, z | 
E,2D,3/D,/ E, z :|]  



